img/edit.svg

<svg width="20" height="20" viewBox="0 0 20 20" fill="none" xmlns="http://www.w3.org/2000/svg">
<path d="M16.6666 15.8333H10.4166M3.33325 13.2101V15.6667C3.33325 15.7587 3.40787 15.8333 3.49992 15.8333H5.95652C6.00073 15.8333 6.04312 15.8158 6.07438 15.7845L14.8821 6.97683C14.9472 6.91174 14.9472 6.80621 14.8821 6.74112L12.4255 4.28452C12.3604 4.21943 12.2548 4.21943 12.1898 4.28452L3.38207 13.0922C3.35081 13.1235 3.33325 13.1659 3.33325 13.2101Z" stroke="#CDCECF" stroke-width="1.5" stroke-linecap="round" stroke-linejoin="round"/>
</svg>

<svg width="20" height="20" fill="none" xmlns="http://www.w3.org/2000/svg"><path d="M16.667 15.833h-6.25M3.333 13.21v2.457c0 .092.075.166.167.166h2.457a.166.166 0 0 0 .117-.049l8.808-8.807a.167.167 0 0 0 0-.236l-2.457-2.456a.167.167 0 0 0-.235 0l-8.808 8.807a.167.167 0 0 0-.049.118Z" stroke="#CDCECF" stroke-width="1.5" stroke-linecap="round" stroke-linejoin="round"/></svg>
